X:531
T: "Die Liebste"
N: Z1211
O: Europa, Mitteleuropa, Steiermark
R: Liebes - Lied
M: 3/4
L: 1/8
K: Eb
E2 | FEDEFD | E2
GBE2 | cB=ABcA | B2
dfB2 | Baf3B | Bge3
G | c2AGAD | E2z2

@@@ Tune index: 10289
